src/svgs/next-week.svg

<svg xmlns="http://www.w3.org/2000/svg" viewBox="0 0 24 24" width="512" height="512" aria-labelledby="iinext-week-desc iinext-week-title"><title id="iinext-week-title">Next Week Icon</title><desc id="iinext-week-desc">A picture depicting a square with an arrow pointing right.</desc><path d="M20 2H4a2 2 0 00-2 2v16a2 2 0 002 2h16a2 2 0 002-2V4a2 2 0 00-2-2zm0 18H4V4h16zM18 9H6V6h12zm0 5l-4 4v-3H6v-2h8v-3z"/></svg>

<svg xmlns="http://www.w3.org/2000/svg" viewBox="0 0 24 24"><path d="M20,2H4A2,2,0,0,0,2,4V20a2,2,0,0,0,2,2H20a2,2,0,0,0,2-2V4A2,2,0,0,0,20,2Zm0,18H4V4H20ZM18,9H6V6H18Zm0,5-4,4V15H6V13h8V10Z"/></svg>
